Cloverleaf.svg

<svg xmlns="http://www.w3.org/2000/svg" viewBox="0 0 15.201388 15.192238"><path fill="#d3725f" d="M9.6846249.00558966c-.98866.0479-1.946862.74557-2.092378 1.47536004l-.0011 5.6719996c.0199.0295.05063.0735.06821.0997.09693-.0652.213733-.14556.367935-.2527.348509-.24215.822177-.58405 1.318265-.98805.496091-.40401 1.0133761-.87402 1.4526261-1.36013.219626-.24306.419643-.49019.58756-.73535.103117-.1505496.166871-.2962896.24288-.4438996.249761-.61271.350822-1.25171.131257-1.89653-.344313-.99618004-.97912-1.44618004-1.652095-1.54926004-.1402028-.0215-.2819931-.028-.4232301-.0212zm-4.340818.0346c-.780339.0253-1.552377.47721-1.934249 1.62574004-.142168.42423-.165986.84389-.10542 1.25315l.06305.0243c1.120495.43491 2.195807 1.5689596 3.025655 2.5879596.414924.5095.764674.99201 1.011825 1.34772.07671.11041.133377.19516.186526.27388l.0011-5.6719996C7.3723909.67703966 6.3471479.00762966 5.3438539.04019966z"/><path fill="#8dd35f" d="M7.5338999 7.9441113c-.09724.0652-.214965.145172-.36897.252181-.34851.24214-.822693.58457-1.318782.98857-.907799.739283-1.886378 1.6973784-2.325957 2.5750354-.236565.600448-.302557 1.228758-.08785 1.859319.915181 2.647829 3.881279 1.437399 4.164087.108003.40661 1.421462 3.2998861 2.419917 4.1697721-.19637.143058-.426881.166426-.849231.104386-1.260905l-.04393-.01705c-1.120496-.43492-2.1973571-1.568956-3.0272051-2.5879554-.414924-.509511-.762606-.992001-1.009758-1.347721-.08026-.115513-.134341-.195488-.188619-.275436-.0027-.004-.0063-.009-.0093-.01344-.01904-.02773-.04294-.06207-.05788-.08423z"/><path fill="#5f98d3" d="M2.3745193 3.2989165c-.265481-.0017-.533284.0389-.801501.130225-2.6564798.91817-1.42956481 3.901614-.09508 4.167704l2.835486.000529h-2.841687c-1.42915981.3909279-2.44330881 3.3020762.181901 4.1749262.428439.143581.852461.166263 1.265556.103353l.02067-.05168c.434913-1.12049 1.566887-2.197365 2.585889-3.0272049.509499-.414931.9920055-.7646747 1.3477205-1.0118244.115022-.079921.194153-.1324754.275435-.1870694.000176-.000117.000344-.000396.000529-.000529.02889-.01942.07153-.04903.09715-.06615-.06484-.09723-.143131-.215506-.250114-.369486-.242146-.34851-.584568-.822176-.9885695-1.318266-.742598-.911864-1.707857-1.895483-2.588989-2.332157-.000662-.00026-.0014-.000246-.0021-.00053-.340152-.13224-.68903-.209607-1.042313-.211873z" paint-order="stroke markers fill"/><path fill="#f2e540" d="M12.713871 3.2849501v.000529c-.144399-.002-.287372.01092-.429432.03152l-.02066.05323c-.434912 1.12049-1.566886 2.197355-2.5858867 3.027205-.509503.41492-.994074.764675-1.34979 1.011825-.11607.0806-.19513.133709-.276468.188619h.0011c-.02927.01981-.07159.04902-.09715.06615.06517.0972.144819.215199.251663.368969.242105.34852.58401.822176.988013 1.318266.7433229.9127596 1.7084037 1.8966536 2.5900217 2.3326736.595442.23128 1.218533.293922 1.843299.08113v-.000531c2.656484-.91817 1.429029-3.9016136.09457-4.1677036h-.0072c1.427511-.39433 2.438289-3.301693-.185-4.173906-.274621-.092-.547637-.135136-.817004-.137976z"/><path fill="#8dd35f" d="M7.591773 8.028347v5.684408c.390938 1.42916 3.301573 2.443299 4.174422-.181901.143059-.426881.166426-.849231.104387-1.260905l-.04392-.01705c-1.120501-.434923-2.1973626-1.568958-3.0272108-2.5879585-.4149241-.5095108-.7626054-.9920013-1.0097574-1.3477214-.0841865-.121167-.1410439-.2051077-.1979208-.2888721z"/><path fill="#f2e540" d="M12.706706 3.2849672c-.144398-.00153-.28737.011364-.429431.032039l-.02067.053227c-.434915 1.1204901-1.566889 2.1973556-2.5858904 3.0272057-.509501.4149209-.9940735.7646747-1.3497886 1.0118246-.1160698.0806424-.1951312.1337157-.2764689.1886188h5.6611539c1.429162-.3909398 2.443304-3.302089-.181901-4.1749391-.274622-.0920324-.547638-.1351325-.817005-.137976z"/><path fill="#d3725f" d="M5.3521163.03710342C4.5717769.06243736 3.7997391.51431467 3.4178673 1.662844c-.1421688.4242255-.165985.8439032-.1054198 1.2531536l.063045.024289c1.1204951.43491 2.1958073 1.5689557 3.0256552 2.5879558.4149241.5095.7646726.9920113 1.0118247 1.3477214.076708.1104043.1261668.1843056.1793171.2630329V1.480943C7.3723855.6770405 6.3554097.00453123 5.3521163.03710342z"/><path fill="#5f98d3" d="M1.4779341 7.5968489c-1.42916001.3909401-2.44330895 3.3020891.181901 4.1749391.4284386.143581.8524614.166263 1.2655559.103353l.020672-.05168c.434913-1.120487 1.5668867-2.1973622 2.5858887-3.0272022.5094997-.4149309.9920063-.7646744 1.3477214-1.0118243.1152705-.0800934.1944852-.1328666.275952-.1875856z" paint-order="stroke markers fill"/><path fill="#87b2de" d="M2.3807214 3.2984021c-.2654812-.00169-.5332846.038896-.8015015.1302247-2.65648.9181701-1.42956463 3.9016144-.095085 4.1677043l5.6709718.00103c.028892-.019407.071894-.049447.097669-.066663-.0648381-.0972275-.1431315-.2155042-.2501142-.3694841-.2421459-.3485099-.5845681-.8221758-.9885701-1.3182658-.7425979-.9118643-1.7078572-1.8954827-2.5889893-2.3321574-.0006615-.0002593-.0014023-.0002583-.0020637-.0005292-.3401521-.1322403-.6890298-.2096077-1.0423136-.2118736z" paint-order="stroke markers fill"/><path fill="#f7f090" d="M8.0475591 7.5958144c-.0293.019783-.073098.050183-.099219.067696.065169.097189.1448205.2151999.2516643.36897.2421461.3485197.5840513.8221758.9880534 1.3182656.7433225.912756 1.7084062 1.896645 2.5900232 2.332674.595441.231272 1.218532.294383 1.843298.08165v-.000529c2.656486-.91817 1.429034-3.9016144.09457-4.1677046z"/><path fill="#aade87" d="M7.5338954 7.9441135c-.0972381.0651981-.214965.1451721-.3689697.252181-.34851.2421401-.8226936.5845702-1.3187826.9885701-.9077989.7392835-1.8863779 1.6973784-2.3259564 2.5750364-.2365653.600448-.3025574 1.228758-.08785 1.859319.9181708 2.656479 3.9016192 1.429564 4.1677043.09508l.00103-5.672522c-.019593-.0288194-.0498465-.0719552-.0671772-.0976645z"/><path fill="#de9587" d="M10.107834.0267625c-1.1216245-.1718-2.3493035.62012-2.5156085 1.45417l-.001 5.67201c.01989.0295.05063.0735.06821.0997.09693-.0652.213735-.14556.367936-.2527.34851-.24215.822177-.58405 1.318266-.98805.496091-.404 1.0133735-.87401 1.4526245-1.36012.219625-.24306.419644-.4902.587561-.73536.103117-.15055.166871-.29629.242879-.4439.249762-.61271.350821-1.25171.131258-1.89652-.344313-.99618-.979121-1.44619-1.652095-1.54926z"/></svg>

<?xml version="1.0" encoding="UTF-8" standalone="no"?>
<svg
   xmlns:dc="http://purl.org/dc/elements/1.1/"
   xmlns:cc="http://creativecommons.org/ns#"
   xmlns:rdf="http://www.w3.org/1999/02/22-rdf-syntax-ns#"
   xmlns:svg="http://www.w3.org/2000/svg"
   xmlns="http://www.w3.org/2000/svg"
   xmlns:sodipodi="http://sodipodi.sourceforge.net/DTD/sodipodi-0.dtd"
   xmlns:inkscape="http://www.inkscape.org/namespaces/inkscape"
   viewBox="0 0 4.8651222 4.8620454"
   version="1.1"
   id="svg26"
   sodipodi:docname="Cloverleaf.svg"
   width="4.8651223"
   height="4.8620453"
   inkscape:export-filename="C:\Users\Allie\Downloads\Cloverleaf.png"
   inkscape:export-xdpi="1616.6899"
   inkscape:export-ydpi="1616.6899"
   inkscape:version="0.92.4 (5da689c313, 2019-01-14)">
  <metadata
     id="metadata32">
    <rdf:RDF>
      <cc:Work
         rdf:about="">
        <dc:format>image/svg+xml</dc:format>
        <dc:type
           rdf:resource="http://purl.org/dc/dcmitype/StillImage" />
        <dc:title></dc:title>
      </cc:Work>
    </rdf:RDF>
  </metadata>
  <defs
     id="defs30" />
  <sodipodi:namedview
     pagecolor="#ffffff"
     bordercolor="#666666"
     borderopacity="1"
     objecttolerance="10"
     gridtolerance="10"
     guidetolerance="10"
     inkscape:pageopacity="0"
     inkscape:pageshadow="2"
     inkscape:window-width="1920"
     inkscape:window-height="1017"
     id="namedview28"
     showgrid="false"
     inkscape:zoom="124.27397"
     inkscape:cx="2.2818821"
     inkscape:cy="2.5364157"
     inkscape:window-x="1272"
     inkscape:window-y="-8"
     inkscape:window-maximized="1"
     inkscape:current-layer="svg26"
     fit-margin-top="0.5"
     fit-margin-left="0.5"
     fit-margin-right="0.5"
     fit-margin-bottom="0.5" />
  <g
     id="g853"
     transform="matrix(0.25426113,0,0,0.25426113,0.5,0.49924942)">
    <path
       style="fill:#d3725f"
       inkscape:connector-curvature="0"
       id="path2"
       d="m 9.6846249,0.00559181 c -0.98866,0.0479 -1.946862,0.74557 -2.092378,1.47535999 l -0.0011,5.6719996 c 0.0199,0.0295 0.05063,0.0735 0.06821,0.0997 0.09693,-0.0652 0.213733,-0.14556 0.367935,-0.2527 0.348509,-0.24215 0.822177,-0.58405 1.318265,-0.98805 0.496091,-0.40401 1.0133761,-0.87402 1.4526261,-1.36013 0.219626,-0.24306 0.419643,-0.49019 0.58756,-0.73535 0.103117,-0.1505496 0.166871,-0.2962896 0.24288,-0.4438996 0.249761,-0.61271 0.350822,-1.25171 0.131257,-1.89653 -0.344313,-0.99617999 -0.97912,-1.44617999 -1.652095,-1.54925999 -0.1402028,-0.0215 -0.2819931,-0.028 -0.4232301,-0.0212 z m -4.340818,0.0346 c -0.780339,0.0253 -1.552377,0.47721 -1.934249,1.62573999 -0.142168,0.42423 -0.165986,0.84389 -0.10542,1.25315 l 0.06305,0.0243 c 1.120495,0.43491 2.195807,1.5689596 3.025655,2.5879596 0.414924,0.5095 0.764674,0.99201 1.011825,1.34772 0.07671,0.11041 0.133377,0.19516 0.186526,0.27388 l 0.0011,-5.6719996 C 7.3723909,0.67704181 6.3471479,0.00763181 5.3438539,0.04020181 Z" />
    <path
       style="fill:#8dd35f"
       inkscape:connector-curvature="0"
       id="path4"
       d="m 7.5338999,7.9441134 c -0.09724,0.0652 -0.214965,0.145172 -0.36897,0.252181 -0.34851,0.24214 -0.822693,0.58457 -1.318782,0.98857 -0.907799,0.739283 -1.886378,1.6973786 -2.325957,2.5750356 -0.236565,0.600448 -0.302557,1.228758 -0.08785,1.859319 0.915181,2.647829 3.881279,1.437399 4.164087,0.108003 0.40661,1.421462 3.2998861,2.419917 4.1697721,-0.19637 0.143058,-0.426881 0.166426,-0.849231 0.104386,-1.260905 l -0.04393,-0.01705 C 10.70616,11.817977 9.6292989,10.683941 8.7994509,9.6649414 c -0.414924,-0.509511 -0.762606,-0.992001 -1.009758,-1.347721 -0.08026,-0.115513 -0.134341,-0.195488 -0.188619,-0.275436 -0.0027,-0.004 -0.0063,-0.009 -0.0093,-0.01344 -0.01904,-0.02773 -0.04294,-0.06207 -0.05788,-0.08423 z" />
    <path
       style="fill:#5f98d3;paint-order:stroke markers fill"
       inkscape:connector-curvature="0"
       id="path6"
       d="m 2.3745193,3.2989186 c -0.265481,-0.0017 -0.533284,0.0389 -0.801501,0.130225 -2.6564798,0.91817 -1.42956481,3.901614 -0.09508,4.167704 l 2.835486,5.29e-4 h -2.841687 c -1.42915981,0.3909279 -2.44330881,3.3020764 0.181901,4.1749264 0.428439,0.143581 0.852461,0.166263 1.265556,0.103353 l 0.02067,-0.05168 c 0.434913,-1.12049 1.566887,-2.1973652 2.585889,-3.0272051 0.509499,-0.414931 0.9920055,-0.7646747 1.3477205,-1.0118244 0.115022,-0.079921 0.194153,-0.1324754 0.275435,-0.1870694 1.76e-4,-1.17e-4 3.44e-4,-3.96e-4 5.29e-4,-5.29e-4 0.02889,-0.01942 0.07153,-0.04903 0.09715,-0.06615 -0.06484,-0.09723 -0.143131,-0.215506 -0.250114,-0.369486 -0.242146,-0.34851 -0.584568,-0.822176 -0.9885695,-1.318266 -0.742598,-0.911864 -1.707857,-1.895483 -2.588989,-2.332157 -6.62e-4,-2.6e-4 -0.0014,-2.46e-4 -0.0021,-5.3e-4 -0.340152,-0.13224 -0.68903,-0.209607 -1.042313,-0.211873 z" />
    <path
       style="fill:#f2e540"
       inkscape:connector-curvature="0"
       id="path8"
       d="m 12.713871,3.2849522 v 5.29e-4 c -0.144399,-0.002 -0.287372,0.01092 -0.429432,0.03152 l -0.02066,0.05323 c -0.434912,1.12049 -1.566886,2.197355 -2.5858867,3.027205 -0.509503,0.41492 -0.994074,0.764675 -1.34979,1.011825 -0.11607,0.0806 -0.19513,0.133709 -0.276468,0.188619 h 0.0011 c -0.02927,0.01981 -0.07159,0.04902 -0.09715,0.06615 0.06517,0.0972 0.144819,0.215199 0.251663,0.368969 0.242105,0.34852 0.58401,0.822176 0.988013,1.318266 0.7433229,0.9127598 1.7084037,1.8966538 2.5900217,2.3326738 0.595442,0.23128 1.218533,0.293922 1.843299,0.08113 v -5.31e-4 c 2.656484,-0.91817 1.429029,-3.9016138 0.09457,-4.1677038 h -0.0072 c 1.427511,-0.39433 2.438289,-3.301693 -0.185,-4.173906 -0.274621,-0.092 -0.547637,-0.135136 -0.817004,-0.137976 z" />
    <path
       style="fill:#8dd35f"
       inkscape:connector-curvature="0"
       id="path10"
       d="m 7.591773,8.0283491 v 5.6844079 c 0.390938,1.42916 3.301573,2.443299 4.174422,-0.181901 0.143059,-0.426881 0.166426,-0.849231 0.104387,-1.260905 l -0.04392,-0.01705 C 10.706161,11.817978 9.6292994,10.683943 8.7994512,9.6649426 8.3845271,9.1554318 8.0368458,8.6729413 7.7896938,8.3172212 7.7055073,8.1960542 7.6486499,8.1121135 7.591773,8.0283491 Z" />
    <path
       style="fill:#f2e540"
       inkscape:connector-curvature="0"
       id="path12"
       d="m 12.706706,3.2849693 c -0.144398,-0.00153 -0.28737,0.011364 -0.429431,0.032039 l -0.02067,0.053227 C 11.82169,4.4907254 10.689716,5.5675909 9.6707146,6.397441 9.1612136,6.8123619 8.6766411,7.1621157 8.320926,7.4092656 8.2048562,7.489908 8.1257948,7.5429813 8.0444571,7.5978844 H 13.705611 C 15.134773,7.2069446 16.148915,4.2957954 13.52371,3.4229453 13.249088,3.3309129 12.976072,3.2878128 12.706706,3.2849693 Z" />
    <path
       style="fill:#d3725f"
       inkscape:connector-curvature="0"
       id="path14"
       d="M 5.3521163,0.03710557 C 4.5717769,0.06243951 3.7997391,0.51431682 3.4178673,1.6628461 3.2756985,2.0870716 3.2518823,2.5067493 3.3124475,2.9159997 l 0.063045,0.024289 c 1.1204951,0.43491 2.1958073,1.5689557 3.0256552,2.5879558 0.4149241,0.5095 0.7646726,0.9920113 1.0118247,1.3477214 0.076708,0.1104043 0.1261668,0.1843056 0.1793171,0.2630329 V 1.4809451 C 7.3723855,0.67704265 6.3554097,0.00453338 5.3521163,0.03710557 Z" />
    <path
       style="fill:#5f98d3;paint-order:stroke markers fill"
       inkscape:connector-curvature="0"
       id="path16"
       d="m 1.4779341,7.596851 c -1.42916001,0.3909401 -2.44330895,3.302089 0.181901,4.174939 0.4284386,0.143581 0.8524614,0.166263 1.2655559,0.103353 l 0.020672,-0.05168 C 3.380976,10.702976 4.5129497,9.6261009 5.5319517,8.7962609 6.0414514,8.38133 6.523958,8.0315865 6.8796731,7.7844366 6.9949436,7.7043432 7.0741583,7.65157 7.1556251,7.596851 Z" />
    <path
       style="fill:#87b2de;paint-order:stroke markers fill"
       inkscape:connector-curvature="0"
       id="path18"
       d="M 2.3807214,3.2984042 C 2.1152402,3.2967142 1.8474368,3.3373002 1.5792199,3.4286289 -1.0772601,4.346799 0.14965527,7.3302433 1.4841349,7.5963332 l 5.6709718,0.00103 c 0.028892,-0.019407 0.071894,-0.049447 0.097669,-0.066663 C 7.1879376,7.4334727 7.1096442,7.315196 7.0026615,7.1612161 6.7605156,6.8127062 6.4180934,6.3390403 6.0140914,5.8429503 5.2714935,4.931086 4.3062342,3.9474676 3.4251021,3.5107929 3.4244406,3.5105336 3.4236998,3.5105346 3.4230384,3.5102637 3.0828863,3.3780234 2.7340086,3.300656 2.3807248,3.2983901 Z" />
    <path
       style="fill:#f7f090"
       inkscape:connector-curvature="0"
       id="path20"
       d="m 8.0475591,7.5958165 c -0.0293,0.019783 -0.073098,0.050183 -0.099219,0.067696 0.065169,0.097189 0.1448205,0.2151999 0.2516643,0.36897 0.2421461,0.3485197 0.5840513,0.8221758 0.9880534,1.3182656 0.7433225,0.9127559 1.7084062,1.8966449 2.5900232,2.3326739 0.595441,0.231272 1.218532,0.294383 1.843298,0.08165 v -5.29e-4 c 2.656486,-0.91817 1.429034,-3.9016143 0.09457,-4.1677045 z" />
    <path
       style="fill:#aade87"
       inkscape:connector-curvature="0"
       id="path22"
       d="M 7.5338954,7.9441156 C 7.4366573,8.0093137 7.3189304,8.0892877 7.1649257,8.1962966 6.8164157,8.4384367 6.3422321,8.7808668 5.8461431,9.1848667 4.9383442,9.9241502 3.9597652,10.882245 3.5201867,11.759903 c -0.2365653,0.600448 -0.3025574,1.228758 -0.08785,1.859319 0.9181708,2.656479 3.9016192,1.429564 4.1677043,0.09508 L 7.601071,8.0417801 C 7.581478,8.0129607 7.5512245,7.9698249 7.5338938,7.9441156 Z" />
    <path
       style="fill:#de9587"
       inkscape:connector-curvature="0"
       id="path24"
       d="m 10.107834,0.02676465 c -1.1216245,-0.1718 -2.3493035,0.62012 -2.5156085,1.45416995 l -10e-4,5.67201 c 0.01989,0.0295 0.05063,0.0735 0.06821,0.0997 0.09693,-0.0652 0.213735,-0.14556 0.367936,-0.2527 0.34851,-0.24215 0.822177,-0.58405 1.318266,-0.98805 0.496091,-0.404 1.0133735,-0.87401 1.4526245,-1.36012 0.219625,-0.24306 0.419644,-0.4902 0.587561,-0.73536 0.103117,-0.15055 0.166871,-0.29629 0.242879,-0.4439 0.249762,-0.61271 0.350821,-1.25171 0.131258,-1.89652 C 11.415647,0.57981465 10.780839,0.12980465 10.107865,0.02673465 Z" />
  </g>
  <circle
     style="display:none;opacity:0.14285715;fill:#000000;fill-opacity:1;stroke:none;stroke-width:56.73085022;stroke-linecap:round;stroke-linejoin:round;stroke-miterlimit:4;stroke-dasharray:none;stroke-opacity:1;paint-order:stroke markers fill"
     id="path839"
     cx="2.4325619"
     cy="2.4249716"
     r="7.6006951"
     inkscape:export-filename="C:\Users\Allie\Downloads\path839.png"
     inkscape:export-xdpi="1616.6899"
     inkscape:export-ydpi="1616.6899" />
</svg>
